X:1
T:Caprice 24, Variation 5
C:N.Paganini
M:2/4
K:C
L:1/16
A,2 f1F1e1E1 A,2 | ^G,2 ^d'1^d1e'1e1 ^G,2 | \
A,2 f1F1e1E1 A,2 | ^G,2 ^d'1^d1e'1e1 z2 |
A,2 f1F1e1E1 A,2 | ^G,2 ^d'1^d1e'1e1 ^G,2 | \
A,2 f1F1e1E1 A,2 | ^G,2 ^d'1^d1e'1e1 z2 |
_D2 _b'1_b1a'1a1 ^C2  | D2 e1E1f1F1 C2 |\
B,2 _a'1_a1g'1g1  B,2 | C2 ^d1^D1e1E1 C2 |
D2 b1B1^a1^A1     D2  | E2  ^g1^G1a1A1 F2 | \
D2 f'1f1e'1e1     E2  | A,2c'1c1a1A1 z2 |
